!!!!SEGMENT: pl-sa--305-a-vii-65--007_lechleitner-ferdinand-simon--vespere-magnificat.krn
!!!cenid: 17xx:400
!!!COM: Lechleitner, Ferdinand Simon
!!!COM-rismID:
!!!CDT: ~1700-~1800
!!!CNT:
!!!OPR: Vespere
!!!OTL: Magnificat
!!!OMV: 007
!!!PDT:
!!!AGN: Sacred; Vespers
!!!SMS-siglum: PL-SA
!!!SMS-shelfmark: 305/A VII 65
!!!SMS-shelfwork: 001-007 M
!!!NIFC-rismSourceID: 1001077319
!!!NIFC-islandoraID:
!!!URL-pdf-islandora:
!!!URL-scan: https://bc.bdsandomierz.pl/dlibra/publication/1610/edition/1578/content @EN{Scan on Cyfrowa Biblioteka Diecezjalna w Sandomierzu} @PL{Skany w portalu Cyfrowa Biblioteka Diecezjalna w Sandomierzu}
!!!ONB-nifc: UWAGA: części Vespere: Domine ad adiuvandum, Dixit dominus, Confitebor, Beatus vir, Laudate pueri, Credidi, Magnificat
!!!AIN: 1 alto 3 empty 1 organ 1 tenor 2 violn 1 vox
!!!key:
**kern	**fba	**kern	**kern	**kern	**text	**kern	**text	**kern	**text	**kern	**text	**kern	**kern
*part9	*	*part8	*part7	*part6	*part6	*part5	*part5	*part4	*part4	*part3	*part3	*part2	*part1
*staff9	*	*staff8	*staff7	*staff6	*staff6	*staff5	*staff5	*staff4	*staff4	*staff3	*staff3	*staff2	*staff1
*Iorgan	*	*Ivioln	*Ivioln	*Iempty	*	*Itenor	*	*Ialto	*	*Ivox	*	*Iempty	*Iempty
*I"Organo	*	*I"Violino Secundo	*I"Violino Primo	*I"Baſso	*	*I"Tenore	*	*I"Alto	*	*I"Canto	*	*I"Clarino 2do	*I"Clarino 1mo
*I'org	*	*I'vl II	*I'vl I	*I'B	*	*I'T	*	*I'A	*	*I'C	*	*I'clno II	*I'clno I
*clefF4	*	*clefG2	*clefG2	*clefF4	*	*clefC4	*	*clefC3	*	*clefC1	*	*clefG2	*clefG2
*k[]	*	*k[]	*k[]	*k[]	*	*k[]	*	*k[]	*	*k[]	*	*k[]	*k[]
*C:	*	*C:	*C:	*C:	*	*C:	*	*C:	*	*C:	*	*C:	*C:
*M3/4	*	*M3/4	*M3/4	*M3/4	*	*M3/4	*	*M3/4	*	*M3/4	*	*M3/4	*M3/4
!	!	!LO:TX:a:t=P:problem=\right or in the middle	!	!	!	!	!	!	!	!	!	!	!LO:TX:a:t=P:problem=all \right
!LO:TX:a:t=Vivace	!	!LO:TX:a:t=Vivace	!LO:TX:a:t=P:problem=\right, left or in the middle	!	!	!	!	!	!	!	!	!LO:TX:a:t=vivace	!LO:TX:a:t=alle&colon;
4C/	.	4ee\	4gg\	4C/	Ma-	4c\	Ma-	4g\	Ma-	4ee\	Ma-	4e/	4cc\
=1	=1	=1	=1	=1	=1	=1	=1	=1	=1	=1	=1	=1	=1
!LO:TX:a:t=P:problem=cauda na środku nuty	!	!	!	!	!	!	!	!	!	!	!	!	!
2G\	.	4.b/	4.gg\	4.G\	-gni-	4.B\	-gni-	4.g\	-gni-	4.dd\	-gni-	4.g/	4.dd\
!	!	!	!LO:TX:a:t=P:problem=chorągiewki 8 z lewej strony	!	!	!	!	!	!	!	!	!	!LO:TX:a:t=P:problem=chorągiewki 8 z lewej strony
.	.	8b/	8gg\	8G\	-fi-	8B\	-fi-	8g\	-fi-	8dd\	-fi-	8g/	8dd\
!LO:TX:a:t=P:problem=all \right (except 2)	!	!	!	!	!	!	!	!	!	!	!	!	!
4G\	.	4b/	4gg\	4G\	-cat	4B\	-cat	4g\	-cat	4dd\	-cat,	4g/	4dd\
=2	=2	=2	=2	=2	=2	=2	=2	=2	=2	=2	=2	=2	=2
4c\	.	4ee\	4gg\	4c\	a-	4c\	a-	4g\	a-	4ee\	a-	4e/	4cc\
4B\	6	4gg\	4bb\	4B\	-ni-	4d\	-ni-	4g\	-ni-	4dd\	-ni-	4g/	4dd\
!	!	!	!	!	!	!	!	!	!	!	!	!LO:TX:a:t=P:problem=all \right	!
4c\	.	4ee\	4gg\	4c\	-ma	4c\	-ma	4g\	-ma	4ee\	-ma	4cc\	8ee\L
.	.	.	.	.	.	.	.	.	.	.	.	.	8ff\J
!	!	!	!	!	!	!	!	!	!	!	!	!LO:LB:g=original	!
=3	=3	=3	=3	=3	=3	=3	=3	=3	=3	=3	=3	=3	=3
!	!	!	!	!	!	!	!	!	!	!LO:SIC:s=2dd\:v	!	!	!
!	!	!	!	!	!	!LO:TX:a:t=P:problem=cauda na środku nuty	!	!LO:TX:a:t=P:problem=cauda na środku nuty	!	!LO:TX:a:t=P:problem=cauda na środku nuty	!	!	!
4.G\	.	4dd\	4gg\	(4.G\	me-	2B\	me-	2.g\	me-	2ee\	me-	4.dd\	4.gg\
.	.	8dd\L	8gg\L	.	.	.	.	.	.	.	.	.	.
!LO:TX:a:t=P:problem=chorągiewki 8 z lewej strony	!	!	!	!	!	!	!	!	!	!	!	!LO:TX:a:t=P:problem=chorągiewki 8 z lewej strony	!
8F\	6 4	8dd\J	8gg\J	8F\)	.	.	.	.	.	.	.	8dd\	8gg\
4E\	6 3	4ee\	4gg\	4E\	-a	4c\	-a	.	.	4ee\	-a	4ee\	4gg\
!	!	!	!	!	!	!LO:LB:g=original	!	!	!	!LO:LB:g=original	!	!	!
=4	=4	=4	=4	=4	=4	=4	=4	=4	=4	=4	=4	=4	=4
!	!	!	!	!	!	!LO:TX:a:t=P:problem=cauda na środku nuty	!	!	!	!	!	!	!
4F\	6 5	8cc\L	8aa\L	(4F\	do-	2d\	do-	4a\	-a	4cc\	do-	4dd\	4ff\
.	.	8cc\	8aa\	.	.	.	.	.	.	.	.	.	.
4D\	7	8cc\	8ff\	4D\)	.	.	.	4.f\	do-	(8dd\L	.	8dd\L	8ff\L
.	.	8cc\	8ff\	.	.	.	.	.	.	8cc\J)	.	8dd\	8ff\J
4G\	7	8b\	8dd\	4G\	-mi-	4d\	-mi-	.	.	4b\	-mi-	8g\	8dd\L
.	.	8b\J	8gg\J	.	.	.	.	8g\	-mi-	.	.	8g\J	8dd\J
=5	=5	=5	=5	=5	=5	=5	=5	=5	=5	=5	=5	=5	=5
!LO:TX:a:t=P:problem=mixed beam	!	!	!	!	!	!	!	!	!	!	!	!	!
8C/L	.	8cc\L	8ee\L	8C/	-num,	8e,<\	-num,	8g\	-num	8cc,<\	-num,	8e/L	8cc\L
8c\	.	8ee\	8gg\	8c\	et	8c\	et	8g\	et	8ee\	et	8g/J	8g\J
!	!	!	!	!	!	!	!	!LO:LB:g=original	!	!	!	!	!
8B\	6	8dd\	8gg\	8B\	e-	8d\	e-	8g\	e-	8dd\	e-	8g/L	8g/L
!	!	!	!	!LO:SIC:l:s=-xsul-:v	!	!LO:SIC:l:s=-xsul-:v	!	!LO:SIC:l:s=-xsul-:v	!	!LO:SIC:l:s=-xsul-:v	!	!	!
8c\	.	8cc\	8gg\	8c\	-xul-	8e\	-xul-	8g\	-xul-	8cc\	-xul-	16g/L	16g/L
.	.	.	.	.	.	.	.	.	.	.	.	16g/JJ	16g/JJ
8G\	.	8dd\	8gg\	8G\	-ta-	8d\	-ta-	8g\	-ta-	8dd\	-ta-	16g/LL	16g/LL
.	.	.	.	.	.	.	.	.	.	.	.	16g/	16g/
8c\J	.	8ee\J	8gg\J	8c\	-vit	8c\	-vit	8g\	-vit	8ee\	-vit	16g/	16g/
.	.	.	.	.	.	.	.	.	.	.	.	16g/JJ	16g/JJ
!	!	!	!	!LO:LB:g=original	!	!	!	!	!	!	!	!	!
=6	=6	=6	=6	=6	=6	=6	=6	=6	=6	=6	=6	=6	=6
4B\	6	4dd\	4.gg\	4.B\	Spi-	4d\	Spi-	4.g\	Spi-	4.dd\	Spi-	8g/L	8g/L
.	.	.	.	.	.	.	.	.	.	.	.	16g/L	16g/L
.	.	.	.	.	.	.	.	.	.	.	.	16g/JJ	16g/JJ
4G\	.	8dd\L	.	.	.	4B\	-ri-	.	.	.	.	8g/L	8g/L
.	.	8b\J	8gg\L	8G\	-ri-	.	.	8g\	-ri-	8dd\	-ri-	8g/	8g/
4c\	.	4ee\	8gg\	4c\	-tus,	4e\	-tus,	4e\	-tus	4cc\	-tus	8g/	8g/
.	.	.	8aa\J	.	.	.	.	.	.	.	.	8g/J	8g/J
=7	=7	=7	=7	=7	=7	=7	=7	=7	=7	=7	=7	=7	=7
2G\	.	4dd\	4bb\	4G\	me-	4B\	me-	4g\	me-	4dd\	me-	4g/	4g/
.	.	4dd\	4gg\	4G\	-us	4B\	-us	4g\	-us	4dd\	-us	4g/	4g/
!	!	!	!	!	!	!	!	!	!	!	!	!	!LO:TX:a:t=P:problem=brak zakończenia ligatury
4E\	6	[4gg\	4ccc\	4E\	in	4e\	in	4cc\	in	4gg\	in	4ee\	[4gg\
!	!	!	!LO:LB:g=original	!	!	!	!	!	!	!	!	!	!LO:LB:g=original
=8	=8	=8	=8	=8	=8	=8	=8	=8	=8	=8	=8	=8	=8
!	!	!	!	!LO:TX:a:t=P:problem=we wszystkich 2\ caudy na środku	!	!LO:N:vis=4.	!	!	!	!	!	!	!
2A\	7	4gg\]	8ccc\L	2A\	de-	4e\	de-	4a\	de-	4gg\	de-	4cc\	4gg\
.	.	.	8ccc\	.	.	.	.	.	.	.	.	.	.
.	.	8ff\L	8ccc\	.	.	(8d\L	-o	4a\	-o	(8ff\L	-o,	8cc\L	8ff\L
.	.	8ee\J	8ccc\	.	.	8c\J)	.	.	.	8ee,<\J)	.	8cc\J	8ee\J
!	!	!LO:TX:a:t=P:problem=brak zakończenia ligatury	!	!	!	!	!	!	!	!	!	!	!
4D/	7	[4ff\	8ccc\	4D/	-o	4d\	in	4a\	in	4ff\	in	4dd\	4ff\
.	.	.	8ccc\J	.	.	.	.	.	.	.	.	.	.
!	!	!LO:LB:g=original	!	!	!	!	!	!	!	!	!	!	!
=9	=9	=9	=9	=9	=9	=9	=9	=9	=9	=9	=9	=9	=9
2G\	7	4ff\	8bb\L	2G\	ſa-	4d\	de-	(4.g\	de-	4ff\	de-	4dd\	4ff\
.	.	.	8bb\	.	.	.	.	.	.	.	.	.	.
.	.	8ee\L	8bb\	.	.	(8c\L	-o	.	.	(8ee\L	.	8g/L	8ee\L
.	.	8dd\J	8bb\	.	.	8B\J)	.	8f\)	.	8dd\J)	.	8g/J	8dd\J
4C/	.	4ee\	8gg\	4C/	-lu-	4c\	ſa-	4g,<\	-o	4ee\	-o	4cc\	4ee\
.	.	.	8gg\J	.	.	.	.	.	.	.	.	.	.
!	!	!	!	!	!	!	!	!	!	!LO:LB:g=original	!	!LO:LB:g=original	!
=10	=10	=10	=10	=10	=10	=10	=10	=10	=10	=10	=10	=10	=10
4.F\	.	4ff\	4aa\	(4.F\	-ta-	4.c\	-lu-	4.a\	Sa-	4.ff\	Sa-	4cc\	4.ff\
.	.	8ff\L	8aa\L	.	.	.	.	.	.	.	.	8cc\L	.
8G\	6	8ee\	8gg\	8G\)	.	8B\	.	8g\	-lu-	8ee\	-lu-	8g\J	8ee\
4A\	6	8dd\	8ff\	4A\	-ri	4c\	-ta-	4f\	-ta-	4ff\	-ta-	4cc\	4ff\
.	.	8ee\J	8gg\J	.	.	.	.	.	.	.	.	.	.
!LO:LB:g=original	!	!	!	!	!	!	!	!	!	!	!	!	!
!	!	!	!	!	!	!LO:PB:g=original	!	!	!	!	!	!	!
=11	=11	=11	=11	=11	=11	=11	=11	=11	=11	=11	=11	=11	=11
!	!	!	!	!	!	!	!	!	!	!	!	!LO:SIC:s=4d/:v	!
4F#X\	6 5	4dd\	4aa\	4F#X\	me-	4d\	-ri	4a\	-ri	2dd\	-ri	4e/	4dd\
!	!	!	!	!	!	!	!	!LO:TX:a:t=P:problem=cauda na środku nuty	!	!	!	!	!
!	!	!	!	!	!	!	!	!LO:TX:b:t=Verte cito	!	!	!	!	!
4G\	5	4ee\	4gg\	(4G\	.	(4c\	me-	2a\	me-	.	.	8g/L	4.dd\
.	.	.	.	.	.	.	.	.	.	.	.	8g/	.
4GG/	4:3	4b\	4gg\	4GG/)	.	4d\)	.	.	.	4dd\	me-	8g/	.
.	.	.	.	.	.	.	.	.	.	.	.	8g/J	8cc\
!	!	!	!	!	!	!	!	!LO:PB:g=original	!	!	!	!	!
=12	=12	=12	=12	=12	=12	=12	=12	=12	=12	=12	=12	=12	=12
*M2/2	*	*M2/2	*M2/2	*M2/2	*	*M2/2	*	*M2/2	*	*M2/2	*	*M2/2	*M2/2
*met(C.)	*	*met(C.)	*met(c|)	*met(C.)	*	*met(C.)	*	*met(C.)	*	*met(C.)	*	*met(c|)	*met(C.)
!LO:TX:a:t=P:problem=mixed beam	!	!LO:TX:b:t=et exultavit	!	!	!	!	!	!	!	!	!	!	!LO:TX:b:t=Et exultavit
!LO:TX:b:t=allegro	!	!LO:TX:a:t=allegro	!LO:TX:b:t=et exultavit	!	!	!	!	!	!	!	!	!LO:TX:a:t=P:problem=mixed beam	!LO:TX:a:t=alle
8C/L	.	16cc\LL	16gg\LL	8C,</	-o	8e,<\	-o	8g,<\	-o	8cc,<\	-o	8e/L	8cc\L
.	.	16ee\	16gg\	.	.	.	.	.	.	.	.	.	.
!	!	!	!	!LO:TX:b:t=Tutti	!	!	!	!	!	!	!	!	!
8c\	.	16ee\	16gg\	8c\	et	8c\	et	8g\	et	8ee\	et	8cc\	8ee\
.	.	16ee\JJ	16gg\JJ	.	.	.	.	.	.	.	.	.	.
8B\	6	16dd\LL	16gg\LL	8B\	e-	8d\	e-	8g\	e-	8dd\	e-	8g/	8ff\
.	.	16dd\	16gg\	.	.	.	.	.	.	.	.	.	.
!	!	!	!	!LO:SIC:l:s=-xsul-:v	!	!LO:SIC:l:s=-xsul-:v	!	!LO:SIC:l:s=-xsul-:v	!	!LO:SIC:l:s=-xsul-:v	!	!	!
8G\J	.	16dd\	16gg\	8G\	-xul-	8B\	-xul-	8g\	-xul-	8dd\	-xul-	8dd\J	8gg\J
.	.	16dd\JJ	16gg\JJ	.	.	.	.	.	.	.	.	.	.
!	!	!	!	!LO:LB:g=original	!	!	!	!	!	!	!	!	!
8A\L	.	16cc\LL	16ee\LL	8A\	-ta-	8c\	-ta-	8e\	-ta-	8cc\	-ta-	8cc\L	8ee\L
.	.	16cc\	16ee\	.	.	.	.	.	.	.	.	.	.
8G\	.	16dd\	16aa\	8G\	-vit	8B\	-vit	8g\	-vit	8dd\	-vit	8dd\J	8gg\J
.	.	16dd\JJ	16aa\JJ	.	.	.	.	.	.	.	.	.	.
8A\	.	16cc\LL	16ee\LL	8A\	Spi-	8e\	Spi-	8e\	Spi-	8cc\	Spi-	8cc\L	8ee\L
.	.	16cc\	16ee\	.	.	.	.	.	.	.	.	.	.
8E\J	6	16cc\	16ee\	16E\	-ri-	16c\	-ri-	16f\	-ri-	16cc\	-ri-	16dd\L	16ff\L
.	.	16cc\JJ	16ee\JJ	16E\	-tus	16c\	-tus	16g\	-tus	16cc\	-tus	16ee\JJ	16gg\JJ
=13	=13	=13	=13	=13	=13	=13	=13	=13	=13	=13	=13	=13	=13
8F\L	.	16cc\LL	16aa\LL	(8F\L	me-	(8A/L	me-	(8f\L	me-	4cc\	me-	8cc\L	8ff\L
.	.	16g\	16cc\	.	.	.	.	.	.	.	.	.	.
8E\J	6	16g\	16cc\	8E\J)	.	8G/J)	.	8g\J)	.	.	.	8ee\J	8gg\J
.	.	16g\JJ	16cc\JJ	.	.	.	.	.	.	.	.	.	.
16F\LL	.	16cc\LL	16cc\LL	(16F\LL	-us	8A,</	-us	8f\	-us	8cc\	-us	8cc\L	16aa\LL
16E\	.	16a\	16cc\	16E\JJ)	.	.	.	.	.	.	.	.	16gg\
16D\	6	16b\	16dd\	(16D\LL	in	8c\	in	8f\	in	(16b\LL	in	16g\L	16ff\
16C\JJ	.	16cc\JJ	16ee\JJ	16C\JJ)	.	.	.	.	.	16cc\JJ)	.	16cc\JJ	16ee\JJ
!	!	!	!LO:LB:g=original	!	!	!	!	!	!	!	!	!	!
8G\L	.	16dd\LL	16dd\LL	8G\	de-	8B\	de-	8g\	de-	8dd\	de-	8g/L	8dd\L
.	.	16cc\	16aa\	.	.	.	.	.	.	.	.	.	.
!	!	!	!	!	!	!	!	!	!	!LO:LB:g=original	!	!	!
8A\	.	16cc\	16aa\	8A\	-o	8c,<\	o	8e\	-o	8cc\	-o	16e/L	16cc\L
.	.	16cc\JJ	16aa\JJ	.	.	.	.	.	.	.	.	16g/JJ	16dd\JJ
8F\	6 5	16dd\LL	16aa\LL	8F\	ſa-	8c\	ſa-	8a\	Sa-	8dd\	Sa-	8cc\L	8.dd\L
.	.	16dd\	16aa\	.	.	.	.	.	.	.	.	.	.
8G\J	.	16dd\	16gg\	8G\	-lu-	8B\	-lu-	8g\	-lu-	8dd\	-lu-	8g\J	.
.	.	16dd\JJ	16gg\JJ	.	.	.	.	.	.	.	.	.	16dd\Jk
=14	=14	=14	=14	=14	=14	=14	=14	=14	=14	=14	=14	=14	=14
!LO:TX:a:t=P:problem=mixed beam	!	!	!	!	!	!	!	!	!	!	!	!	!
8E\L	6	16ee\LL	16gg\LL	8E\	-ta-	8c\	-ta-	8g\	-ta-	8ee\	-ta-	16cc\LL	16ee\LL
.	.	16ee\	16gg\	.	.	.	.	.	.	.	.	16dd\	16ff\
8F\	6	16dd\	16aa\	8F\	-ri	8c\	-ri	8a\	-ri	8dd\	-ri	16cc\	16ee\
.	.	16cc\JJ	16aa\JJ	.	.	.	.	.	.	.	.	16g\JJ	16dd\JJ
!	!	!LO:LB:g=original	!	!	!	!LO:LB:g=original	!	!	!	!	!	!	!LO:LB:g=original
!LO:TX:a:t=P:problem=4 powinna znajdować się pod drugą 6	!	!	!	!LO:TX:a:t=P:problem=mixed beam	!	!	!	!	!	!	!	!	!
8G\	6:6 4	16cc\LL	16gg\LL	(>8G\L	me-	(8.c\L	me-	4g\	me-	8ee\L	me-	16cc\LL	8ee\L
.	.	16ee\	16gg\	.	.	.	.	.	.	.	.	16g\	.
8GG/J	5 3	16dd\	16gg\	8GG/J)	.	.	.	.	.	(16dd\L	.	16g\	16dd\L
.	.	16cc\JJ	16gg\JJ	.	.	16B\Jk)	.	.	.	16cc\JJ)	.	16g\JJ	16cc\JJ
!	!	!	!	!	!	!	!	!LO:LB:g=original	!	!	!	!	!
!	!	!LO:TX:a:t=P:problem=chorągiewki 8 z lewej strony	!	!	!	!	!	!	!	!	!	!	!
4C/	.	8ee\	8gg\	8C/	-o	8c\	-o	8g\	-o	8cc,<\	-o,	8e/	8cc\
!	!	!	!	!	!	!	!	!	!	!LO:TX:b:t=Solo	!	!	!
.	.	8r	8rdd	8rF	.	8r	.	8re	.	8g/	qu-	8r	8r
8E\L	6	4r	4rdd	4r	.	4r	.	4re	.	8g/	-ia	4r	4r
8C\J	.	.	.	.	.	.	.	.	.	8cc\	Re-	.	.
!	!	!	!	!	!	!	!	!	!	!	!	!LO:LB:g=original	!
=15	=15	=15	=15	=15	=15	=15	=15	=15	=15	=15	=15	=15	=15
!	!	!LO:TX:a:t=3	!LO:TX:a:t=3	!	!	!	!	!	!	!	!	!LO:TX:a:t=3	!LO:TX:a:t=3
8G\L	.	0r	0r	0r	.	0r	.	0r	.	(16b\LL	-spe-	0r	0r
.	.	.	.	.	.	.	.	.	.	16cc\	.	.	.
8A\	.	.	.	.	.	.	.	.	.	16b\	.	.	.
.	.	.	.	.	.	.	.	.	.	16cc\JJ)	.	.	.
8B\	.	.	.	.	.	.	.	.	.	8dd\	-xit	.	.
8G\J	.	.	.	.	.	.	.	.	.	8dd\	hu-	.	.
!LO:TX:a:t=P:problem=mixed beam	!	!	!	!	!	!	!	!	!	!	!	!	!
8C/L	.	.	.	.	.	.	.	.	.	(16ee\LL	-mi-	.	.
.	.	.	.	.	.	.	.	.	.	16dd\JJ)	.	.	.
8G\	.	.	.	.	.	.	.	.	.	(16cc\LL	-li-	.	.
.	.	.	.	.	.	.	.	.	.	16b\JJ)	.	.	.
!LO:TX:a:t=P:problem=nieczytelny zapis	!	!	!	!	!	!	!	!	!	!	!	!	!
8F#X\	6	.	.	.	.	.	.	.	.	8a\	-ta-	.	.
8D\J	7	.	.	.	.	.	.	.	.	16dd\	-tem	.	.
.	.	.	.	.	.	.	.	.	.	16cc\	an-	.	.
!LO:LB:g=original	!	!	!	!	!	!	!	!	!	!LO:LB:g=original	!	!	!
=16	=16	=16	=16	=16	=16	=16	=16	=16	=16	=16	=16	=16	=16
!LO:TX:a:t=P:problem=mixed beam	!	!	!	!	!	!	!	!	!	!	!	!	!
8G\L	.	.	.	.	.	.	.	.	.	(16b\LL	-cil-	.	.
.	.	.	.	.	.	.	.	.	.	16cc\JJ)	.	.	.
8C\	.	.	.	.	.	.	.	.	.	(16dd\LL	-le	.	.
.	.	.	.	.	.	.	.	.	.	16ee\JJ)	.	.	.
8D\	4	.	.	.	.	.	.	.	.	(8b\L	Su-	.	.
8DD/J	#	.	.	.	.	.	.	.	.	16a\L	.	.	.
.	.	.	.	.	.	.	.	.	.	16g\JJ)	.	.	.
!LO:TX:a:t=P:problem=mixed beam	!	!	!	!	!	!	!	!	!	!	!	!	!
8GG/L	.	.	.	.	.	.	.	.	.	4g,</	-ae,	.	.
8G\	.	.	.	.	.	.	.	.	.	.	.	.	.
8E\	6	.	.	.	.	.	.	.	.	8g/	ec-	.	.
8C\J	.	.	.	.	.	.	.	.	.	(16cc\LL	-ce	.	.
.	.	.	.	.	.	.	.	.	.	16b\JJ)	.	.	.
=17	=17	=17	=17	=17	=17	=17	=17	=17	=17	=17	=17	=17	=17
!	!	!	!	!LO:N:vis=1	!	!LO:N:vis=1	!	!LO:N:vis=1	!	!	!	!LO:N:vis=1	!LO:N:vis=1
8F\L	.	1r	1r	1r	.	1r	.	1r	.	8a\	e-	1r	1r
8E\	.	.	.	.	.	.	.	.	.	16a\	-nim	.	.
.	.	.	.	.	.	.	.	.	.	16g\	ex	.	.
8F\	.	.	.	.	.	.	.	.	.	8a\	hoc	.	.
8D\J	7	.	.	.	.	.	.	.	.	(16dd\LL	be-	.	.
.	.	.	.	.	.	.	.	.	.	16cc\JJ)	.	.	.
8G\L	.	.	.	.	.	.	.	.	.	8b\	-a-	.	.
8F\J	.	.	.	.	.	.	.	.	.	16b,<\	-tam,	.	.
.	.	.	.	.	.	.	.	.	.	16a\	me	.	.
8G\L	.	.	.	.	.	.	.	.	.	8b\	di-	.	.
16A\L	.	.	.	.	.	.	.	.	.	8g/	-cent	.	.
16B\JJ	.	.	.	.	.	.	.	.	.	.	.	.	.
!	!	!	!	!LO:LB:g=original	!	!	!	!	!	!	!	!	!
=18	=18	=18	=18	=18	=18	=18	=18	=18	=18	=18	=18	=18	=18
!	!	!	!	!	!	!	!	!	!	!LO:TX:a:t=tutti	!	!	!
8c\L	.	16ee\LL	16gg\LL	8c\	om-	8c\	om-	8g\	om-	8ee\	om-	16cc\LL	16ee\LL
.	.	16ee\	16gg\	.	.	.	.	.	.	.	.	16dd\	16ff\
8G\	.	16gg\	16bb\	8G\	-nes	8B\	-nes	8g\	-nes	8dd\	-nes	16ee\	16gg\
.	.	16gg\JJ	16bb\JJ	.	.	.	.	.	.	.	.	16dd\JJ	16ff\JJ
8A\	.	16ee\LL	16ccc\LL	8A\	ge-	8A/	ge-	8e\	ge-	8cc\	ge-	16cc\LL	16ee\LL
.	.	16ee\	16gg\	.	.	.	.	.	.	.	.	16dd\	16ff\
!	!	!	!	!	!	!	!	!	!	!LO:LB:g=original	!	!	!
8E\J	6	16ee\	16gg\	8E\	-ne-	8c\	-ne-	8g\	-ne-	8cc\	-ne-	16ee\	16gg\
.	.	16ee\JJ	16gg\JJ	.	.	.	.	.	.	.	.	16cc\JJ	16ee\JJ
!LO:TX:a:t=P:problem=mixed beam	!	!	!	!	!	!	!	!	!	!	!	!	!
8F\L	.	16cc\LL	16aa\LL	8F\	-ra-	(16A\LL	-ra-	8a\	-ra-	(16cc\LL	-ra-	8cc\L	16aa\LL
.	.	16cc\	16aa\	.	.	16B\JJ)	.	.	.	16dd\JJ)	.	.	16gg\
8C\	.	16ee\	16gg\	8C/	-ti-	8c\	-ti-	8g\	-ti-	16ee\LL	-ti-	16cc\L	16ff\
.	.	16ee\JJ	16gg\JJ	.	.	.	.	.	.	16dd\JJ	.	16cc\JJ	16ee\JJ
!	!	!	!	!LO:TX:a:t=P:problem=mixed beam	!	!	!	!	!	!	!	!	!
8G\	.	16dd\LL	16gg\LL	(>8G\L	-o-	(8c\L	-o-	4g\	-o-	4dd\	-o-	16g/LL	8.dd\L
.	.	16gg\	16bb\	.	.	.	.	.	.	.	.	16g/	.
8GG/J	5 4:3	16gg\	16bb\	8GG/J)	.	8d\J)	.	.	.	.	.	16g/	.
.	.	16gg\JJ	16bb\JJ	.	.	.	.	.	.	.	.	16g/JJ	16cc\Jk
=19	=19	=19	=19	=19	=19	=19	=19	=19	=19	=19	=19	=19	=19
8C/L	.	4ee\	4ccc\	4C/	-nes	4e,<\	-nes,	4g\	-nes	4cc\	-nes	4e/	4cc\
8D/	.	.	.	.	.	.	.	.	.	.	.	.	.
8E/	6	4rdd	4rdd	4r	.	8e\	qu-	8g\	qu-	4r	.	4r	4r
8C/J	.	.	.	.	.	8e\	-ia	8g\	-ia	.	.	.	.
!LO:TX:a:t=P:problem=mixed beam	!	!	!	!	!	!	!	!	!	!	!	!	!
8F\L	.	2r	2r	2rBB	.	8f\	fe-	8a\	fe-	2r	.	2rg	2rg
8D\	.	.	.	.	.	8f\	-cit	8a\	-cit	.	.	.	.
8G\	.	.	.	.	.	8.e\	Mi-	8.g\	mi-	.	.	.	.
8GG/J	5 4:3	.	.	.	.	.	.	.	.	.	.	.	.
.	.	.	.	.	.	16d\	-hi	16f\	-hi	.	.	.	.
!	!	!	!	!	!	!LO:LB:g=original	!	!	!	!	!	!	!
=20	=20	=20	=20	=20	=20	=20	=20	=20	=20	=20	=20	=20	=20
!	!	!LO:TX:a:t=3	!LO:TX:a:t=3	!	!	!	!	!	!	!	!	!LO:TX:a:t=8	!
8C/L	.	0r	0r	0r	.	8c\	ma-	8e\	ma-	2r	.	00r	00r
8BB/	6	.	.	.	.	16G/	-gna	16c/	-gna	.	.	.	.
.	.	.	.	.	.	16G/	qui	16d\	qui	.	.	.	.
8C/	.	.	.	.	.	8c\	po-	8e\	po-	.	.	.	.
!	!	!	!	!	!	!	!	!LO:LB:g=original	!	!	!	!	!
8AA/J	6	.	.	.	.	8c\	-tens,	8f#X\	-tens	.	.	.	.
4GG/	.	.	.	.	.	8B\	eſt	8g\	eſt	4dd\	et	.	.
.	.	.	.	.	.	8B\	et	8g\	et	.	.	.	.
8rF	.	.	.	.	.	(16B\LL	ſan-	16g\LL	ſan-	4dd\	mi-	.	.
.	.	.	.	.	.	16c\JJ)	.	16a\JJ	.	.	.	.	.
8G\	.	.	.	.	.	(16B\LL	-ctum	16g\LL	-ctum	.	.	.	.
.	.	.	.	.	.	16c\JJ)	.	16a\JJ	.	.	.	.	.
=21	=21	=21	=21	=21	=21	=21	=21	=21	=21	=21	=21	=21	=21
8BB/L	6	.	.	.	.	8d\	no-	8b\	no-	8g/	-se-	.	.
8C/	6:5	.	.	.	.	(16c\LL	-men	16a\LL	-men	(16a\LL	-ri-	.	.
.	.	.	.	.	.	16B\JJ)	.	16g\JJ	.	16b\JJ)	.	.	.
8D/	.	.	.	.	.	4A/	e-	4f#X\	e-	8a\	-cor-	.	.
8DD/J	.	.	.	.	.	.	.	.	.	16b\	-di-	.	.
.	.	.	.	.	.	.	.	.	.	16cc\	-a	.	.
!LO:LB:g=original	!	!	!	!	!	!	!	!	!	!	!	!	!
!LO:TX:a:t=P:problem=mixed beam	!	!	!	!	!	!	!	!	!	!	!	!	!
8GG/L	.	.	.	.	.	8B\	-jus	8g\	-jus	8b\	e-	.	.
8D/	#	.	.	.	.	8r	.	8re	.	8a\	-jus,	.	.
8G\	.	.	.	.	.	4r	.	4re	.	8b\	a	.	.
8E\J	#6\	.	.	.	.	.	.	.	.	8cc#X\	pro-	.	.
!	!	!	!	!	!	!	!	!	!	!LO:PB:g=original	!	!	!
=22	=22	=22	=22	=22	=22	=22	=22	=22	=22	=22	=22	=22	=22
!	!	!	!	!LO:N:vis=1	!	!	!	!LO:TX:a:t=6	!	!	!	!	!
8F#X\L	6	1r	1r	1r	.	00r	.	00rf	.	8dd\	-ge-	.	.
8E\	#6\	.	.	.	.	.	.	.	.	16dd\	-ni-	.	.
.	.	.	.	.	.	.	.	.	.	16cc#X\	-e,	.	.
8F#X\	6\	.	.	.	.	.	.	.	.	8dd\	in	.	.
8D\J	#	.	.	.	.	.	.	.	.	8a\	pro-	.	.
8G#X\L	.	.	.	.	.	.	.	.	.	8b\	-ge-	.	.
8F#X\	6	.	.	.	.	.	.	.	.	(16b\LL	-ni-	.	.
.	.	.	.	.	.	.	.	.	.	16a\JJ)	.	.	.
8E\	6	.	.	.	.	.	.	.	.	8g/	-es	.	.
8D\J	.	.	.	.	.	.	.	.	.	8f#X/	ti-	.	.
=23	=23	=23	=23	=23	=23	=23	=23	=23	=23	=23	=23	=23	=23
!LO:TX:a:t=P:problem=mixed beam	!	!	!	!	!	!	!	!	!	!	!	!	!
8E\L	.	2r	2r	2r	.	.	.	.	.	8g/	-men-	.	.
8C\	6	.	.	.	.	.	.	.	.	16a\	-ti-	.	.
.	.	.	.	.	.	.	.	.	.	16cc\	-bus	.	.
8D\	6 4	.	.	.	.	.	.	.	.	8b\L	e-	.	.
8DD/J	5 #	.	.	.	.	.	.	.	.	(16a\L	.	.	.
.	.	.	.	.	.	.	.	.	.	16g\JJ)	.	.	.
4GG/	.	8r	8rdd	8r	.	.	.	.	.	8g/	-um	.	.
!	!	!	!	!LO:TX:b:t=Solo	!	!	!	!	!	!	!	!	!
.	.	8b\L	8dd\L	8G\	Fe-	.	.	.	.	8rb	.	.	.
8G\L	.	8dd\	8gg\	8B\	-cit	.	.	.	.	4rb	.	.	.
8F#X\J	6	8dd\J	8aa\J	8d\	po-	.	.	.	.	.	.	.	.
!	!	!	!LO:LB:g=original	!	!	!	!	!	!	!	!	!	!
=24	=24	=24	=24	=24	=24	=24	=24	=24	=24	=24	=24	=24	=24
!	!	!	!LO:TX:a:t=P:problem=most \left or in the middle	!	!	!	!	!	!	!	!	!	!
!	!	!LO:TX:a:t=P:problem=mixed beam	!LO:TX:a:t=P:problem=mixed beam	!	!	!	!	!	!	!LO:TX:a:t=4	!	!	!
4G\	.	8dd\L	8bb\L	16G\LL	-ten-	.	.	.	.	00r	.	00r	00r
.	.	.	.	16D\	.	.	.	.	.	.	.	.	.
.	.	8d/J	8d/J	16E\	.	.	.	.	.	.	.	.	.
.	.	.	.	16F#X\JJ	.	.	.	.	.	.	.	.	.
4rF	.	4r	4r	16G\LL	.	.	.	.	.	.	.	.	.
.	.	.	.	16A\	.	.	.	.	.	.	.	.	.
.	.	.	.	16B\	.	.	.	.	.	.	.	.	.
.	.	.	.	16c\JJ	.	.	.	.	.	.	.	.	.
!	!	!	!	!LO:LB:g=original	!	!	!	!	!	!	!	!	!
!LO:TX:a:t=P:problem=mixed beam	!	!	!	!	!	!	!	!	!	!	!	!	!
16G\LL	.	4b/	4gg\	8.d\	.	.	.	.	.	.	.	.	.
16GG/	.	.	.	.	.	.	.	.	.	.	.	.	.
16AA/	.	.	.	.	.	.	.	.	.	.	.	.	.
16BB/JJ	.	.	.	16d\	-ti-	.	.	.	.	.	.	.	.
16C/LL	.	4r	4rdd	8d\	-am	.	.	.	.	.	.	.	.
16D/	.	.	.	.	.	.	.	.	.	.	.	.	.
16E/	.	.	.	8d\	po-	.	.	.	.	.	.	.	.
!LO:SIC:s=16F#/JJ:v	!	!	!	!	!	!	!	!	!	!	!	!	!
16F/JJ	.	.	.	.	.	.	.	.	.	.	.	.	.
=25	=25	=25	=25	=25	=25	=25	=25	=25	=25	=25	=25	=25	=25
8G\L	.	16g/LL	16g/LL	8.B\	-ten-	.	.	.	.	.	.	.	.
.	.	16d/	16d/	.	.	.	.	.	.	.	.	.	.
8A\	.	16e/	16e/	.	.	.	.	.	.	.	.	.	.
.	.	16f#X/JJ	16f#X/JJ	16A\	-ti-	.	.	.	.	.	.	.	.
8B\	.	16g/LL	16g/LL	8G\	-am	.	.	.	.	.	.	.	.
.	.	16a/	16a/	.	.	.	.	.	.	.	.	.	.
8G\J	.	16b/	16b/	8G\	in	.	.	.	.	.	.	.	.
.	.	16cc/JJ	16cc/JJ	.	.	.	.	.	.	.	.	.	.
!	!	!LO:LB:g=original	!	!	!	!	!	!	!	!	!	!	!
!LO:TX:a:t=P:problem=mixed beam	!	!	!	!	!	!	!	!	!	!	!	!	!
8F#X\L	6	8dd\L	8dd\L	8A\	bra-	.	.	.	.	.	.	.	.
8G\	.	16b\L	8gg\J	16B\	-chi-	.	.	.	.	.	.	.	.
.	.	16cc\JJ	.	16G\	-o	.	.	.	.	.	.	.	.
8D\	#	4dd\	8aa\L	4F#X\	Su-	.	.	.	.	.	.	.	.
8DD/J	.	.	16gg\L	.	.	.	.	.	.	.	.	.	.
.	.	.	16aa\JJ	.	.	.	.	.	.	.	.	.	.
=26	=26	=26	=26	=26	=26	=26	=26	=26	=26	=26	=26	=26	=26
4GG/	.	4dd\	4bb\	8G\	-o	0r	.	0rf	.	.	.	.	.
.	.	.	.	8G\	dis-	.	.	.	.	.	.	.	.
8rF	.	8r	8rdd	8E\	-per-	.	.	.	.	.	.	.	.
!	!	!	!LO:TX:a:t=P:problem=chorągiewki 8 z prawej strony	!	!	!	!	!	!	!	!	!	!
8c\L	.	8ee\	8gg\	8C/	-sit	.	.	.	.	.	.	.	.
8B\	-6	8ff\L	8aa\L	8r	.	.	.	.	.	.	.	.	.
8F\J	.	8ff\J	8bb\J	8F\	Su-	.	.	.	.	.	.	.	.
!LO:LB:g=original	!	!	!	!	!	!	!	!	!	!	!	!	!
8r	.	8r	8rdd	8D/	-per-	.	.	.	.	.	.	.	.
8B\	.	8dd\	8ff\	8BB/	-bos	.	.	.	.	.	.	.	.
!	!	!	!	!LO:PB:g=original	!	!	!	!	!	!	!	!	!
=27	=27	=27	=27	=27	=27	=27	=27	=27	=27	=27	=27	=27	=27
8G#X\L	6	8ee\L	8gg#X\L	4rF	.	.	.	.	.	.	.	.	.
8E\	#	8ee\	8gg#\J	.	.	.	.	.	.	.	.	.	.
8A\	n	8cc\	8aa\L	8A\	me-	.	.	.	.	.	.	.	.
8G#X\J	6	8ee\J	8bb\J	8G#X\	-nte	.	.	.	.	.	.	.	.
!LO:TX:a:t=P:problem=mixed beam	!	!	!	!	!	!	!	!	!	!	!	!	!
8A\L	.	8ee\L	8ccc\L	8A\	cor-	.	.	.	.	.	.	.	.
8D\	6:5	16dd\L	16bb\L	(16F\LL	-dis	.	.	.	.	.	.	.	.
.	.	16cc\JJ	16aa\JJ	16D\JJ)	.	.	.	.	.	.	.	.	.
!	!	!	!	!LO:TX:a:t=P:problem=mixed beam	!	!	!	!	!	!	!	!	!
8E\	6 4	8b\L	8aa\L	(>8E\L	su-	.	.	.	.	.	.	.	.
8EE/J	#	8ee\J	8gg#X\J	8EE/J)	.	.	.	.	.	.	.	.	.
=28	=28	=28	=28	=28	=28	=28	=28	=28	=28	=28	=28	=28	=28
!LO:TX:a:t=P:problem=mixed beam	!	!	!	!	!	!	!	!	!	!	!	!	!
8AA/L	-	16cc\LL	16aa\LL	8AA,</	-i	8r	.	8rf	.	8rb	.	16rg	16r
.	.	16cc\	16ee\	.	.	.	.	.	.	.	.	16e/LL	16c/LL
8A\	.	16cc\	16ee\	8A\	de-	8A/	de-	8e\	de-	8cc\	de-	16e/	16c/
.	.	16cc\JJ	16ee\JJ	.	.	.	.	.	.	.	.	16e/JJ	16c/JJ
!	!	!	!	!LO:TX:a:t=P:problem=♯ na wysokości A	!	!	!	!	!	!	!	!	!
8G#X\	6	16b\LL	16ee\LL	8G#X\	-po-	8B\	-po-	8.e\	-po-	8.b\	-po-	16e/LL	16c/LL
.	.	16b\	16ee\	.	.	.	.	.	.	.	.	16e/	16c/
*	*	*	*	*	*	*custos:G	*	*	*	*	*	*	*
!	!	!	!	!	!	!LO:TX:a:t=P:problem=custos prawdopodobnie użyty jako łamanie pięciolinii. Nad custos kropka przypominająca główkę nuty na 3 linii	!	!	!	!	!	!	!
8E\J	.	16ee\	16gg#X\	8E\	-su-	8G#X/	-su-	.	.	.	.	16e/	16c/
.	.	16ee\JJ	16gg#\JJ	.	.	.	.	16e\	-su-	16b\	-su-	16e/JJ	16c/JJ
!	!	!	!LO:LB:g=original	!	!	!LO:LB:g=original	!	!	!	!	!	!	!
8A\L	.	16cc\LL	16ee\LL	8A\	-it	8A/	-it	8e\	-it	8cc\	-it	16e/LL	16c/LL
.	.	16b\	16ee\	.	.	.	.	.	.	.	.	16e/	16c/
8G#X\	6	16b\	16ee\	8G#X\	po-	8B\	po-	8e\	po-	8b\	po-	16e/	16c/
.	.	16b\JJ	16ee\JJ	.	.	.	.	.	.	.	.	16e/JJ	16c/JJ
8A\	.	16cc\LL	16ee\LL	8A\	-ten-	8A/	-ten-	8a\	-ten-	8cc\	-ten-	8e/L	8c/L
.	.	16cc\	16ee\	.	.	.	.	.	.	.	.	.	.
8E\J	#	16ee\	16gg#\	8E\	-tes	8B\	-tes	16g#X\	-tes	16b\	-tes	8e/J	8c/J
.	.	16ee\JJ	16gg#\JJ	.	.	.	.	16g#\	de	16b\	de	.	.
!	!	!	!	!	!	!	!	!LO:LB:g=original	!	!	!	!	!LO:LB:g=original
=29	=29	=29	=29	=29	=29	=29	=29	=29	=29	=29	=29	=29	=29
!	!	!LO:TX:a:t=P:problem=mixed beam	!LO:TX:a:t=P:problem=mixed beam	!	!	!	!	!	!	!	!	!	!
8r	.	16e/LL	16e/LL	8r	.	8r	.	8a\	se-	8cc\	se-	16rg	16rg
.	.	16ee\	16gg#X\	.	.	.	.	.	.	.	.	16e/LL	16e/LL
8E\L	#	16ee\	16gg#\	8E\	po-	8e\	po-	16g#X\	-de	16b,<\	-de	16e/	16e/
.	.	16ee\JJ	16gg#\JJ	.	.	.	.	16g#\	po-	16ee\	po-	16e/JJ	16e/JJ
8A\	n	16cc\LL	16ee\LL	(8A\L	-ten-	8e\	-ten-	8a\L	-ten-	4cc\	-ten-	8e/	8e/
.	.	16cc\	16ee\	.	.	.	.	.	.	.	.	.	.
8G\J	6 4	16cc\	16ee\	8Gn\J)	.	8e\	-tes	8e\J	.	.	.	8rdd	8r
.	.	16cc\JJ	16ee\JJ	.	.	.	.	.	.	.	.	.	.
!	!	!	!	!	!	!	!	!	!	!	!	!LO:TX:b:t=verte	!
8F\L	.	16ff\LL	16aa\LL	8F\	-tes	(8d\L	de	8a\	-tes	8dd\	-tes	2rg	4r
.	.	16ff\	16aa\	.	.	.	.	.	.	.	.	.	.
!	!	!	!	!LO:LB:g=original	!	!	!	!	!	!	!	!	!
8D\	.	16ff\	16aa\	8D/	de	16A\L	.	8a\	de	8dd\	de	.	.
.	.	16ff\JJ	16aa\JJ	.	.	16B\JJ)	.	.	.	.	.	.	.
8E\	6	16ee\LL	16gg#\LL	(8E\L	se-	8c\L	se-	8g#\L	se-	8cc\L	se-	.	4rg
.	.	16ee\	16gg#\	.	.	.	.	.	.	.	.	.	.
8F\J	6:5	16dd\	16aa\	8F\J)	.	8f\J	.	8a\J	.	16dd\L	.	.	.
.	.	16dd\JJ	16aa\JJ	.	.	.	.	.	.	16cc\JJ	.	.	.
!	!	!LO:LB:g=original	!	!	!	!	!	!	!	!	!	!	!
!	!	!	!	!	!	!	!	!	!	!	!	!LO:PB:g=original	!
=30	=30	=30	=30	=30	=30	=30	=30	=30	=30	=30	=30	=30	=30
8G\L	.	16gg\LL	16bb\LL	8G\	-de	8d,<\	-de	8g\	-de	8b,<\	-de,	8ree	8r
.	.	16ee\	16gg\	.	.	.	.	.	.	.	.	.	.
8C\	.	16ee\	16gg\	8C/	et	8e\	et	8g\	et	8cc\	et	8ee\L	8gg\L
.	.	16ee\JJ	16gg\JJ	.	.	.	.	.	.	.	.	.	.
8D\	#6\	16b\LL	16ff\LL	8D/	e-	8d\	e-	8f\	e-	8b\	e-	8dd\	8ff\
.	.	16b\	16ff\	.	.	.	.	.	.	.	.	.	.
8E\J	6	16cc\	16ee\	8E\	-xal-	8d\	-xal-	8g\	-xal-	8cc\	-xal-	8cc\J	8ee\J
.	.	16cc\JJ	16ee\JJ	.	.	.	.	.	.	.	.	.	.
!	!	!	!	!	!	!	!	!	!	!LO:LB:g=original	!	!	!
8F\L	6	16a\LL	16dd\LL	8F\L	-ta-	(8d\L	-ta-	8a\L	-ta-	16a\LL	-ta-	8ff\L	8aa\L
.	.	16cc\	16ee\	.	.	.	.	.	.	16cc\	.	.	.
8G\	6	16b\	16dd\	8G\	.	8e\J)	.	8g\	.	16b\	.	16ee\L	8gg\J
.	.	16dd\JJ	16gg\JJ	.	.	.	.	.	.	16dd\JJ	.	16dd\JJ	.
8A\	6	16cc\LL	16ff\LL	8A\	.	(8c\L	.	8f\	.	16cc\LL	.	8cc\L	8ff\L
.	.	16ee\	16gg\	.	.	.	.	.	.	16ee\	.	.	.
8B\J	6:5	16dd\	16ff\	8B\J	.	8d\J)	.	[8g\J	.	16dd\	.	8dd\J	16gg\L
.	.	16ff\JJ	16gg\JJ	.	.	.	.	.	.	16ff\JJ	.	.	16ff\JJ
=31	=31	=31	=31	=31	=31	=31	=31	=31	=31	=31	=31	=31	=31
!	!	!	!	!	!	!LO:TX:a:t=P:problem=łuk nad dźwiękiem	!	!	!	!	!	!LO:TX:a:t=P:problem=mixed beam	!
8c\L	.	16cc\LL	16ee\LL	8c\	-vit	8c\	.	8g\]	.	8ee\	.	8cc\L	8ee\L
.	.	16cc\	16aa\	.	.	.	.	.	.	.	.	.	.
*	*	*	*	*	*	*custos:G	*	*	*	*	*	*	*
!	!	!	!	!	!	!LO:TX:a:t=P:problem=custos użyty jako łamanie pięciolinii	!	!	!	!	!	!	!
8F#X\J	6 5	16cc\	16aa\	8F#X\	hu-	8d\	-vit	8a\	-vit	16dd\LL	-vit	8c/J	8dd\J
.	.	16cc\JJ	16aa\JJ	.	.	.	.	.	.	16cc\JJ	.	.	.
!	!	!	!	!	!	!LO:LB:g=original	!	!	!	!	!	!	!
!LO:TX:a:t=P:problem=mixed beam	!	!	!	!	!	!	!	!	!	!	!	!	!
8G\L	5	16cc\LL	16gg\LL	(8G\	-mi-	8.d\	hu-	8.g\	hu-	8cc\	hu-	16g/LL	4dd\
.	.	16b\	16gg\	.	.	.	.	.	.	.	.	16e/	.
8GG/J	4:3	16b\	16gg\	8GG/)	.	.	.	.	.	8b\	-mi-	16c/	.
.	.	16gg\JJ	16gg\JJ	.	.	16d\	-mi-	16g\	-mi-	.	.	16g/JJ	.
!LO:TX:a:t=P:problem=mixed beam	!	!	!	!	!	!	!	!	!	!	!	!	!
8C/L	.	8ee\	8gg\	8C/	-les	8e,<\	-les	8g\	-les	8cc\	-les	8e/	8cc\
!	!	!	!	!	!	!LO:TX:b:t=Solo	!	!	!	!	!	!	!
8c\	.	8r	8rdd	8r	.	8e\	e-	8rf	.	8rb	.	8rdd	8r
8B\	.	4r	4rcc	4r	.	8d\	-su-	4rf	.	4rb	.	4r	4r
8A\J	.	.	.	.	.	8c\	-ri-	.	.	.	.	.	.
!LO:LB:g=original	!	!	!LO:LB:g=original	!	!	!	!	!LO:LB:g=original	!	!	!	!	!
=32	=32	=32	=32	=32	=32	=32	=32	=32	=32	=32	=32	=32	=32
!	!	!LO:TX:a:t=6	!LO:TX:a:t=6	!	!	!	!	!	!	!LO:TX:a:t=3	!	!LO:TX:a:t=6	!LO:TX:a:t=6
8G\L	.	00r	00r	00r	.	16d\LL	-en-	4r	.	0r	.	00r	00r
.	.	.	.	.	.	16c\	.	.	.	.	.	.	.
8A\	.	.	.	.	.	16B\	.	.	.	.	.	.	.
.	.	.	.	.	.	16A\JJ	.	.	.	.	.	.	.
8B\	6	.	.	.	.	8G,</	-tes	8r	.	.	.	.	.
!	!	!	!	!	!	!	!	!LO:TX:a:t=solo	!	!	!	!	!
8G\J	.	.	.	.	.	(16A\LL	im-	8d\	ſu-	.	.	.	.
.	.	.	.	.	.	16B\JJ)	.	.	.	.	.	.	.
!LO:TX:a:t=P:problem=mixed beam	!	!	!	!	!	!	!	!	!	!	!	!	!
8F#X\L	3 5:9:8	.	.	.	.	(16c\LL	-ple-	8d\	-sce-	.	.	.	.
.	.	.	.	.	.	16B\JJ)	.	.	.	.	.	.	.
8G\	.	.	.	.	.	(16A/LL	-vit	8g\	-pit	.	.	.	.
.	.	.	.	.	.	16G/JJ)	.	.	.	.	.	.	.
8D\	5 4	.	.	.	.	4F#X/	Bo-	16a\LL	I-	.	.	.	.
.	.	.	.	.	.	.	.	16b\JJ	.	.	.	.	.
8DD/J	#	.	.	.	.	.	.	16g\LL	-ſra-	.	.	.	.
.	.	.	.	.	.	.	.	16a\JJ	.	.	.	.	.
=33	=33	=33	=33	=33	=33	=33	=33	=33	=33	=33	=33	=33	=33
4GG/	.	.	.	.	.	8G/	-nis	8b\	-el	.	.	.	.
.	.	.	.	.	.	(16B\LL	et	16g\LL	pu-	.	.	.	.
.	.	.	.	.	.	16c\JJ)	.	16a\JJ	.	.	.	.	.
8rBB	.	.	.	.	.	(16d\LL	di-	16b\LL	-e-	.	.	.	.
.	.	.	.	.	.	16c\JJ)	.	16a\JJ	.	.	.	.	.
8GG/	.	.	.	.	.	(16B\LL	-vi-	16g\LL	-rum	.	.	.	.
*	*	*	*	*	*	*custos:G	*	*	*	*	*	*	*
!	!	!	!	!	!	!LO:TX:a:t=P:problem=custos być może użyty jako łamanie pięciolinii	!	!	!	!	!	!	!
.	.	.	.	.	.	16A\JJ)	.	16f\JJ	.	.	.	.	.
!	!	!	!	!	!	!LO:LB:g=original	!	!	!	!	!	!	!
4C/	.	.	.	.	.	8G/	-tes	8e\	ſu-	.	.	.	.
.	.	.	.	.	.	16e\LL	di-	8e\	-um	.	.	.	.
.	.	.	.	.	.	16d\JJ	.	.	.	.	.	.	.
8r	.	.	.	.	.	16c\LL	-mi-	16a\LL	re-	.	.	.	.
.	.	.	.	.	.	16B\	.	16g\JJ	.	.	.	.	.
8C/	6	.	.	.	.	16A\	.	(16f#X\LL	-cor-	.	.	.	.
.	.	.	.	.	.	16G\JJ	.	16e\JJ)	.	.	.	.	.
=34	=34	=34	=34	=34	=34	=34	=34	=34	=34	=34	=34	=34	=34
!	!	!	!	!	!	!	!	!	!	!LO:N:vis=1	!	!	!
4D\	#	.	.	.	.	8F#X/	-sit	(8d\L	-da-	1r	.	.	.
.	.	.	.	.	.	8D/	in-	8f#X\J)	.	.	.	.	.
8r	.	.	.	.	.	(8c\L	-a-	8a\	-tus	.	.	.	.
8F#X\	6 5	.	.	.	.	8A\J)	.	8f#X\	mi-	.	.	.	.
!LO:TX:a:t=P:problem=mixed beam	!	!	!	!	!	!	!	!	!	!	!	!	!
8G\L	.	.	.	.	.	8B-X\L	.	8d\	-se-	.	.	.	.
8C\	6:5	.	.	.	.	16A\L	.	8e\	-ri-	.	.	.	.
.	.	.	.	.	.	16G\JJ	.	.	.	.	.	.	.
!	!	!	!	!	!	!	!	!LO:LB:g=original	!	!	!	!	!
8D\	5 4	.	.	.	.	4F#X/	.	8A/	-cor-	.	.	.	.
8DD/J	#	.	.	.	.	.	.	16B/	-di-	.	.	.	.
.	.	.	.	.	.	.	.	16A/	-ae	.	.	.	.
=35	=35	=35	=35	=35	=35	=35	=35	=35	=35	=35	=35	=35	=35
!LO:N:vis=4	!	!	!	!	!	!	!	!	!	!	!	!	!
8GG/	n	.	.	.	.	4G/	-nes	4B/	ſu-	8rcc	.	.	.
16G\LL	.	.	.	.	.	.	.	.	.	8dd\	Si-	.	.
16A\JJ	.	.	.	.	.	.	.	.	.	.	.	.	.
16B\LL	6	.	.	.	.	4r	.	8B/	-ae	8b\	-cut	.	.
16G\	.	.	.	.	.	.	.	.	.	.	.	.	.
16A\	.	.	.	.	.	.	.	8r	.	8g/	lo-	.	.
16B\JJ	.	.	.	.	.	.	.	.	.	.	.	.	.
!LO:TX:a:t=P:problem=mixed beam	!	!	!	!	!	!	!	!	!	!	!	!	!
8c\L	.	.	.	.	.	2r	.	4r	.	8.ee\	-cu-	.	.
8C/	.	.	.	.	.	.	.	.	.	.	.	.	.
.	.	.	.	.	.	.	.	.	.	16ee\	-tus	.	.
!	!	!	!	!	!	!	!	!LO:N:vis=2	!	!	!	!	!
8G\	.	.	.	.	.	.	.	4r	.	8dd\	eſt	.	.
8GG/J	.	.	.	.	.	.	.	.	.	8dd\	ad	.	.
!	!	!	!	!	!	!	!	!	!	!LO:LB:g=original	!	!	!
=36	=36	=36	=36	=36	=36	=36	=36	=36	=36	=36	=36	=36	=36
!LO:TX:a:t=P:problem=mixed beam	!	!	!	!	!	!	!	!LO:TX:a:t=2	!	!	!	!	!
8A\L	.	0r	0r	0r	.	0r	.	0r	.	8cc\	pa-	0r	0r
8AA/	.	.	.	.	.	.	.	.	.	8cc\	-tres	.	.
8d\	7:#	.	.	.	.	.	.	.	.	(16cc\LL	no-	.	.
.	.	.	.	.	.	.	.	.	.	16a\JJ)	.	.	.
8D/J	.	.	.	.	.	.	.	.	.	(16dd\LL	-stros,	.	.
.	.	.	.	.	.	.	.	.	.	16cc\JJ)	.	.	.
8G\L	.	.	.	.	.	.	.	.	.	8.b\	A-	.	.
8A\	.	.	.	.	.	.	.	.	.	.	.	.	.
.	.	.	.	.	.	.	.	.	.	16a\	-bra-	.	.
8B\	6	.	.	.	.	.	.	.	.	8g/	-ham,	.	.
8G\J	.	.	.	.	.	.	.	.	.	8b\	et	.	.
!LO:LB:g=original	!	!	!	!	!	!	!	!	!	!	!	!	!
=37	=37	=37	=37	=37	=37	=37	=37	=37	=37	=37	=37	=37	=37
8C/L	.	.	.	.	.	.	.	.	.	8cc\	Se-	.	.
8E/J	6	.	.	.	.	.	.	.	.	16b\	-mi-	.	.
.	.	.	.	.	.	.	.	.	.	16cc,<\	-ni	.	.
8F\L	7	.	.	.	.	.	.	.	.	8a\	e-	.	.
8D\J	.	.	.	.	.	.	.	.	.	16dd\	-jus	.	.
.	.	.	.	.	.	.	.	.	.	16cc\	in	.	.
!LO:TX:a:t=P:problem=mixed beam	!	!	!	!	!	!	!	!	!	!LO:SIC:l:s=Sae-:v	!	!	!
8G\L	5	.	.	.	.	.	.	.	.	8b\L	Sė-	.	.
8F\	6	.	.	.	.	.	.	.	.	16cc\L	.	.	.
.	.	.	.	.	.	.	.	.	.	16dd\JJ	.	.	.
!	!	!	!	!	!	!	!	!	!	!LO:TX:a:t=P:problem=niejednoznaczny zapis	!	!	!
8G\	6 4	.	.	.	.	.	.	.	.	8ee\L	-cu-	.	.
8GG/J	5 3	.	.	.	.	.	.	.	.	8dd\J	.	.	.
=38	=38	=38	=38	=38	=38	=38	=38	=38	=38	=38	=38	=38	=38
4C/	.	16rdd	16r	4r	.	4rc	.	4r	.	4cc\	-la	4r	4rdd
.	.	16ee\LL	16gg\LL	.	.	.	.	.	.	.	.	.	.
.	.	16ee\	16gg\	.	.	.	.	.	.	.	.	.	.
.	.	16ee\JJ	16gg\JJ	.	.	.	.	.	.	.	.	.	.
!	!	!	!	!	!	!LO:TX:a:t=Tutti	!	!	!	!	!	!	!
4c\	.	16ee\LL	16gg\LL	8c\	Glo-	8c\	Glo-	8g\	Glo-	8ee\	glo-	8cc\L	8ee\L
.	.	16ee\	16gg\	.	.	.	.	.	.	.	.	.	.
!	!	!	!	!	!	!	!	!	!	!LO:LB:g=original	!	!	!
.	.	16ee\	16gg\	16c\	-ri-	16c\	-ri-	16g\	-ri-	16ee\	-ri-	16cc\L	16ee\L
!	!	!	!	!LO:LB:g=original	!	!	!	!	!	!	!	!	!
.	.	16ee\JJ	16gg\JJ	16c,<\	-a	16c,<\	-a	16g\	-a	16ee,<\	-a	16cc\JJ	16ee\JJ
4B\	6	16dd\LL	16gg\LL	8B\	pa-	4d\	pa-	4g\	Pa-	16dd\LL	Pa-	16g/LL	16dd\LL
.	.	16dd\	16gg\	.	.	.	.	.	.	16b\	.	16g/	16dd\
.	.	16dd\	16gg\	8B\	-tri	.	.	.	.	16cc\	.	16e/	16cc\
.	.	16dd\JJ	16gg\JJ	.	.	.	.	.	.	16dd\JJ	.	16g/JJ	16dd\JJ
4c\	.	16ee\LL	16gg\LL	8c\	Glo-	8c\	-tri	8g\	-tri	8ee\	-tri	8cc\L	8ee\L
.	.	16ee\	16gg\	.	.	.	.	.	.	.	.	.	.
.	.	16ee\	16gg\	16c\	-ri-	8c\	et	8g\	et	8cc\	et	8g\J	8cc\J
.	.	16ff\JJ	16gg\JJ	16c\	-a	.	.	.	.	.	.	.	.
=39	=39	=39	=39	=39	=39	=39	=39	=39	=39	=39	=39	=39	=39
4G\	.	16gg\LL	16bb\LL	8G\	fi-	8B\	fi-	8g\	fi-	8dd\	Fi-	16g/LL	16dd\LL
.	.	16gg\	16bb\	.	.	.	.	.	.	.	.	16g/	16dd\
.	.	16gg\	16bb\	16G\	-li-	16B\	-li-	16g\	-li-	16dd\	-li-	16g/	16dd\
!	!	!	!	!	!	!LO:LB:g=original	!	!	!	!	!	!	!
.	.	16gg\JJ	16bb\JJ	16G\	-o	16B,<\	-o	16g\	-o	16dd,<\	-o	16g/JJ	16dd\JJ
8E\L	6	16cc\LL	16gg\LL	8E\	et	8c\	et	8g\	et	8ee\	et	8cc\L	8ee\L
.	.	16cc\	16gg\	.	.	.	.	.	.	.	.	.	.
8C\J	.	16ee\	16gg\	8C/	spi-	8c\	spi-	8g\	spi-	8ee\	spi-	8ee\J	8gg\J
.	.	16ee\JJ	16gg\JJ	.	.	.	.	.	.	.	.	.	.
!	!	!LO:LB:g=original	!	!	!	!	!	!	!	!	!	!	!
8F\L	5	16ff\LL	16aa\LL	(8F\L	-ri-	(8A\L	-ri-	8a\L	-ri-	4.cc\	-ri-	8cc\L	8ff\L
.	.	16cc\	16cc\	.	.	.	.	.	.	.	.	.	.
8E\	6	16cc\	16cc\	8E\J)	.	8c\J)	.	8g\J	.	.	.	8cc\J	8gg\J
.	.	16cc\JJ	16cc\JJ	.	.	.	.	.	.	.	.	.	.
!	!	!	!	!	!	!	!	!LO:LB:g=original	!	!	!	!	!
8F\	6	16ff\LL	16aa\LL	8F\	-tu-	8A/	-tu-	8a\	-tu-	.	.	16dd\LL	16ff\LL
.	.	16ff\	16aa\	.	.	.	.	.	.	.	.	16dd\	16ff\
8D\J	7	16ff\	16aa\	8D/	-i	8d\	-i	8f\	-i	16dd\	-tu-	16ee\	16gg\
!	!	!	!	!	!	!	!	!	!	!	!	!	!LO:TX:b:t=Verte cito
.	.	16ff\JJ	16aa\JJ	.	.	.	.	.	.	16cc\	-i	16dd\JJ	16ff\JJ
!	!	!	!	!	!	!	!	!	!	!	!	!LO:LB:g=original	!
!	!	!	!	!	!	!	!	!	!	!	!	!	!LO:PB:g=original
=40	=40	=40	=40	=40	=40	=40	=40	=40	=40	=40	=40	=40	=40
!	!	!	!	!	!	!	!	!	!	!	!	!LO:TX:a:t=P:problem=mixed beam	!
8G\L	.	16dd\LL	16gg\LL	8G\	ſan-	8d\	ſan-	8g\	ſan-	8b\	ſan-	8dd\L	8gg\L
.	.	16dd\	16gg\	.	.	.	.	.	.	.	.	.	.
8F\	6 4	16dd\	16gg\	8F\	-cto	8d\	-cto,	8g\	-cto,	8b,<\	-cto	16g/L	8dd\J
.	.	16dd\JJ	16gg\JJ	.	.	.	.	.	.	.	.	16g/JJ	.
!	!	!	!	!	!	!	!	!	!	!	!	!LO:TX:a:t=P:problem=mixed beam	!
8G\	6:3	16ee\LL	16gg\LL	8G\	Si-	8B\	Si-	8g\	ſi-	8ee\	Si-	8g/L	8ee\L
.	.	16ee\	16gg\	.	.	.	.	.	.	.	.	.	.
8E\J	5	16ee\	16gg\	8E\	-cut	8c\	-cut	8g\	-cut	8ee\	-cut	8ee\J	8gg\J
.	.	16ee\JJ	16gg\JJ	.	.	.	.	.	.	.	.	.	.
!	!	!	!	!LO:LB:g=original	!	!	!	!	!	!LO:LB:g=original	!	!	!
!	!	!	!	!	!	!	!	!	!	!	!	!LO:TX:a:t=P:problem=mixed beam	!
8A\L	6	16cc\LL	16ff\LL	8A\	e-	8A\	e-	8f\	e-	8ff\	e-	8cc\L	8ff\L
.	.	16cc\	16ff\	.	.	.	.	.	.	.	.	.	.
8G\	6	16ee\	16ee\	8G\	-rat	8B,<\	-rat	8g,<\	-rat	8ee,<\	-rat	8g/J	8ee\
.	.	16ee\JJ	16ee\JJ	.	.	.	.	.	.	.	.	.	.
8A\	6	16cc\LL	16ff\LL	8A\	in	8A\	in	8f\	in	8ff\	in	16cc\LL	8ff\
.	.	16ff\	16aa\	.	.	.	.	.	.	.	.	16g\	.
8B\J	6:5	16ee\	16gg\	8B\	prin-	8d\	prin-	8g\	prin-	8dd\	prin-	16g\	8dd\J
.	.	16dd\JJ	16ff\JJ	.	.	.	.	.	.	.	.	16g\JJ	.
=41	=41	=41	=41	=41	=41	=41	=41	=41	=41	=41	=41	=41	=41
8c\L	.	16gg\LL	16ee\LL	8c\	-ci-	8.c\	-ci-	8.g\	-ci-	8.ee\	-ci-	8cc\L	8ee\L
.	.	16dd\	16gg\	.	.	.	.	.	.	.	.	.	.
8B\	6	16dd\	16gg\	8B\	-pi-	.	.	.	.	.	.	16ee\L	16gg\L
.	.	16dd\JJ	16gg\JJ	.	.	16d\	-pi-	16g\	-pi-	16dd\	-pi-	16dd\JJ	16ff\JJ
!	!	!	!LO:LB:g=original	!	!	!	!	!	!	!	!	!	!
8c\	.	16cc\LL	16gg\LL	8c\	-o	8e\	-o	8g\	-o	8cc,<\	-o	8cc\L	8ee\L
.	.	16ee\	16gg\	.	.	.	.	.	.	.	.	.	.
8E\J	6	16ee\	16gg\	8E\	et	8e\	et	8g\	et	8cc\	et	8ee\J	8gg\J
.	.	16ee\JJ	16gg\JJ	.	.	.	.	.	.	.	.	.	.
8F\L	.	16ff\LL	16aa\LL	8F\	n(un)c	8c\	n(un)c	8f\	n(un)c	8cc\	nunc	8cc\L	8ff\L
.	.	16ff\	16aa\	.	.	.	.	.	.	.	.	.	.
8D\	6	16ff\	16aa\	8D\	et	8d\	et	8a\	et	8ff\	et	8dd\J	8ff\J
.	.	16ff\JJ	16aa\JJ	.	.	.	.	.	.	.	.	.	.
!	!	!	!	!	!	!LO:LB:g=original	!	!	!	!	!	!	!
!	!	!	!	!	!	!	!	!	!	!	!	!LO:TX:a:t=P:problem=mixed beam	!
8E\	6	16ee\LL	16gg\LL	(8E\L	ſem-	8c\L	Sem-	8g\L	Sem-	8ee\L	Sem-	8cc\L	16ee\LL
.	.	16ee\	16gg\	.	.	.	.	.	.	.	.	.	16dd\
8F\J	5	16dd\	16aa\	8F\J)	.	16f\L	.	8a\J	.	16dd\L	.	8c/J	16dd\
.	.	16dd\JJ	16aa\JJ	.	.	16e\JJ	.	.	.	16cc\JJ	.	.	16dd\JJ
=42	=42	=42	=42	=42	=42	=42	=42	=42	=42	=42	=42	=42	=42
!LO:TX:a:t=P:problem=mixed beam	!	!	!	!	!	!	!	!	!	!	!	!LO:TX:a:t=P:problem=mixed beam	!
8G\L	.	16dd\LL	16bb\LL	8G\	-per	8d\	-per	8g\	-per	8b\	-per	8g/L	8dd\L
.	.	16dd\	16gg\	.	.	.	.	.	.	.	.	.	.
8GG/	.	16dd\	16gg\	(8GG/L	et	(8B\L	et	8b\L	et	(8dd\L	et	8ee\J	8gg\J
.	.	16dd\JJ	16gg\JJ	.	.	.	.	.	.	.	.	.	.
8AA/	6	16cc\LL	16ff\LL	8AA/J)	.	8c\J)	.	8a\J	.	8cc\J)	.	16cc\LL	16ff\LL
.	.	16cc\	16ff\	.	.	.	.	.	.	.	.	16ff\	16aa\
*custos:C	*	*	*	*	*	*	*	*	*	*	*	*	*
!	!	!	!	!	!	!	!	!LO:LB:g=original	!	!	!	!	!
8BB/J	6:5	16b\	16gg\	8BB/	in	8d,<\	in	8g\	in	8b,<\	in	16ee\	16gg\
.	.	16a\JJ	16gg\JJ	.	.	.	.	.	.	.	.	16dd\JJ	16ff\JJ
!LO:LB:g=original	!	!	!	!	!	!	!	!	!	!	!	!	!
!	!	!LO:TX:a:t=P:problem=mixed beam	!	!	!	!LO:SIC:l:s=ſae-:v	!	!	!	!LO:SIC:l:s=Sae-:v	!	!	!
8C\L	6	16g/LL	16ee\LL	8C/	ſae-	8c\	ſe-	8g\	Sae-	8ee\	Se-	8cc\L	8ee\L
.	.	16ff\	16bb\	.	.	.	.	.	.	.	.	.	.
8D\	6	16ff\	16bb\	16D/	-cu-	16B\	-cu-	16f\	-cu-	16dd\	-cu-	8g\J	8dd\J
.	.	16ff\JJ	16bb\JJ	16D/	-la	16A\	-la	16f\	-la	16dd\	-la	.	.
!	!	!	!	!LO:LB:g=original	!	!	!	!	!	!LO:LB:g=original	!	!	!
!	!	!	!	!	!	!LO:SIC:l:s=ſae-:v	!	!LO:SIC:l:s=Sae-:v	!	!LO:SIC:l:s=Sae-:v	!	!	!
8E\	6	16ee\LL	16ccc\LL	8E\	Sae-	8G/	ſe-	8g\	Se-	8cc\	Se-	8cc\L	16cc\LL
.	.	16ee\	16ccc\	.	.	.	.	.	.	.	.	.	16gg\
8F\J	5	16dd\	16aa\	8F\	-cu-	8d\	-cu-	8a\	-cu-	8dd\	-cu-	16dd\L	16ff\
.	.	16dd\JJ	16aa\JJ	.	.	.	.	.	.	.	.	16cc\JJ	16ee\JJ
!	!	!LO:LB:g=original	!	!	!	!	!	!	!	!	!	!	!
=43	=43	=43	=43	=43	=43	=43	=43	=43	=43	=43	=43	=43	=43
8G\L	.	16dd\LL	16bb\LL	8G\	-lo-	8d\	-lo-	8g\	-lo-	8b\	-lo-	8g\L	8dd\L
.	.	16gg\	16ccc\	.	.	.	.	.	.	.	.	.	.
8E\	6	16gg\	16ccc\	8E\	-rum	8e\	-rum,	8g\	-rum	8cc,<\	-rum	8cc\	16ee\L
.	.	16gg\JJ	16ccc\JJ	.	.	.	.	.	.	.	.	.	16dd\JJ
8F\	6 5	16aa\LL	16ccc\LL	(8F\L	A-	4d\	A-	8a\L	A-	(8cc\L	A-	8cc\	8.dd\L
.	.	16aa\	16ccc\	.	.	.	.	.	.	.	.	.	.
8G\J	5 4:3	16gg\	16bb\	8G\J)	.	.	.	8g\J	.	8b\J)	.	8g\J	.
.	.	16gg\JJ	16bb\JJ	.	.	.	.	.	.	.	.	.	16cc\Jk
!	!	!	!	!	!	!	!	!	!	!	!	!	!LO:TX:a:t=P:problem=mixed beam
8C/	4 2	16gg\LL	16ccc\LL	8C/	-men	8e\	-men	8g\	-men	8cc,<\	-men	8e/L	8cc\L
.	.	16cc\	16aa\	.	.	.	.	.	.	.	.	.	.
4A\	6 3	16cc\	16aa\	4F\	A-	(8c\L	A-	8f\L	A-	8a\L	A-	16c/L	16c/L
.	.	16a\JJ	16aa\JJ	.	.	.	.	.	.	.	.	16c/JJ	16c/JJ
.	.	16b\LL	16gg\LL	.	.	8d\J)	.	8d\J	.	8b\J	.	16c/LL	16c/LL
.	.	16b\	16gg\	.	.	.	.	.	.	.	.	16c/	16c/
8G\	.	16ee\	16gg\	8E\	-men	8e\	-men	8g\	-men	8cc\	-men	16c/	16c/
.	.	16ee\JJ	16gg\JJ	.	.	.	.	.	.	.	.	16c/JJ	16c/JJ
!	!	!	!	!	!	!	!	!	!	!	!	!	!LO:LB:g=original
=44	=44	=44	=44	=44	=44	=44	=44	=44	=44	=44	=44	=44	=44
*	*	*	*	*	*	*	*	*2\right	*	*	*	*	*
!LO:TX:a:t=P:problem=cauda na środku nuty	!	!	!	!	!	!	!	!	!	!	!	!	!
2F\	5:6 3:4	16cc\LL	16ff\LL	2F\	A-	(4.A/	A-	2f\	A-	(4.cc\	A-	16c/LL	16c/LL
.	.	16ff\	16aa\	.	.	.	.	.	.	.	.	16c/	16c/
.	.	16ff\	16aa\	.	.	.	.	.	.	.	.	16c/	16c/
.	.	16ff\JJ	16aa\JJ	.	.	.	.	.	.	.	.	16c/JJ	16c/JJ
!	!	!	!LO:LB:g=original	!	!	!	!	!	!	!	!	!	!
.	.	16ff\LL	16aa\LL	.	.	.	.	.	.	.	.	16c/LL	16c/LL
.	.	16dd\	16ff\	.	.	.	.	.	.	.	.	16c/	16c/
.	.	16dd\	16ff\	.	.	8B\)	.	.	.	8dd\)	.	16c/	16c/
.	.	16dd\JJ	16ff\JJ	.	.	.	.	.	.	.	.	16c/JJ	16c/JJ
*	*	*	*	*	*	*2\right	*	*	*	*	*	*	*
!	!	!	!	!	!	!LO:TX:b:t=Tereſsa Nubiſzowska \n mp	!	!	!	!	!	!	!
!LO:TX:b:t=Tereſsa Nubiſzowska	!	!LO:TX:b:t=Tereſsa Nubiſzowska \n mp	!LO:TX:a:t=Tereſsa Nubiſzowska \n mp	!LO:TX:b:t=Tereſsa Nubiſzowska \n mp	!	!	!	!LO:TX:b:t=Tereſsa Nubiſzowska \n mp:problem="u" zmienione inną ręką na "o"	!	!	!	!	!LO:TX:a:t=Tereſsa Nubiſzowska
!	!	!LO:TX:a:t=P:problem=cauda na środku nuty	!LO:TX:a:t=P:problem=cauda na środku nuty	!	!	!	!	!	!	!LO:TX:a:t=P:problem=cauda na środku nuty	!	!	!
2C/	.	2ee\	2gg\	2C/	-men	2c\	-men	2g\	-men	2ee\	-men	4c/	2c/
!	!	!	!	!	!	!	!	!	!	!	!	!LO:TX:a:t=Tereſsa Nubiſzowska \n mp	!
.	.	.	.	.	.	.	.	.	.	.	.	4r	.
==	==	==	==	==	==	==	==	==	==	==	==	==	==
*-	*-	*-	*-	*-	*-	*-	*-	*-	*-	*-	*-	*-	*-
!!!system-decoration: [(s1,s2)][(s3,s4,s5,s6)][(s7,s8)]s9
!!!RDF**kern: < = below
!!!RDF**kern: > = above
!!!ENC: Zofia Niedbalska
!!!END: 2020-11-22
!!!ENC: Andrzej Kubiczek
!!!END: 2020-05-07
